svg/design/color_picker_line.svg

<?xml version="1.0" encoding="UTF-8"?>
<svg width="24px" height="24px" viewBox="0 0 24 24" version="1.1" xmlns="http://www.w3.org/2000/svg" xmlns:xlink="http://www.w3.org/1999/xlink">
    <title>color_picker_line</title>
    <g id="页面-1" stroke="none" stroke-width="1" fill="none" fill-rule="evenodd">
        <g id="Design" transform="translate(-336.000000, -96.000000)">
            <g id="color_picker_line" transform="translate(336.000000, 96.000000)">
                 <path d="M24,0 L24,24 L0,24 L0,0 L24,0 Z M12.5934901,23.257841 L12.5819402,23.2595131 L12.5108777,23.2950439 L12.4918791,23.2987469 L12.4918791,23.2987469 L12.4767152,23.2950439 L12.4056548,23.2595131 C12.3958229,23.2563662 12.3870493,23.2590235 12.3821421,23.2649074 L12.3780323,23.275831 L12.360941,23.7031097 L12.3658947,23.7234994 L12.3769048,23.7357139 L12.4804777,23.8096931 L12.4953491,23.8136134 L12.4953491,23.8136134 L12.5071152,23.8096931 L12.6106902,23.7357139 L12.6232938,23.7196733 L12.6232938,23.7196733 L12.6266527,23.7031097 L12.609561,23.275831 C12.6075724,23.2657013 12.6010112,23.2592993 12.5934901,23.257841 L12.5934901,23.257841 Z M12.8583906,23.1452862 L12.8445485,23.1473072 L12.6598443,23.2396597 L12.6498822,23.2499052 L12.6498822,23.2499052 L12.6471943,23.2611114 L12.6650943,23.6906389 L12.6699349,23.7034178 L12.6699349,23.7034178 L12.678386,23.7104931 L12.8793402,23.8032389 C12.8914285,23.8068999 12.9022333,23.8029875 12.9078286,23.7952264 L12.9118235,23.7811639 L12.8776777,23.1665331 C12.8752882,23.1545897 12.8674102,23.1470016 12.8583906,23.1452862 L12.8583906,23.1452862 Z M12.1430473,23.1473072 C12.1332178,23.1423925 12.1221763,23.1452606 12.1156365,23.1525954 L12.1099173,23.1665331 L12.0757714,23.7811639 C12.0751323,23.7926639 12.0828099,23.8018602 12.0926481,23.8045676 L12.108256,23.8032389 L12.3092106,23.7104931 L12.3186497,23.7024347 L12.3186497,23.7024347 L12.3225043,23.6906389 L12.340401,23.2611114 L12.337245,23.2485176 L12.337245,23.2485176 L12.3277531,23.2396597 L12.1430473,23.1473072 Z" id="MingCute" fill-rule="nonzero"></path>
                <path d="M20.4768,3.51125 C21.6484,4.68282 21.6484,6.58232 20.4768,7.75389 L18.944,9.28676 C19.4787,10.3993 19.2849,11.7743 18.3625,12.6966 L17.6484,13.4107 C16.8674,14.1918 15.601,14.1918 14.82,13.4107 L8.3347,19.896 C7.77209,20.4586 7.00903,20.7747 6.21338,20.7747 L4.41338,20.7747 C3.75063,20.7747 3.21338,20.2374 3.21338,19.5747 L3.21338,17.7747 C3.21338,16.9791 3.52945,16.216 4.09206,15.6534 L10.5773,9.1681 C9.79629,8.38705 9.79629,7.12072 10.5773,6.33968 L11.2915,5.62553 C12.2138,4.70321 13.5888,4.5094 14.7013,5.04412 L16.2342,3.51125 C17.4058,2.33968 19.3053,2.33968 20.4768,3.51125 Z M11.9916,10.5823 L5.50627,17.0676 L5.41945639,17.1666653 C5.28653972,17.3402 5.21338,17.5537 5.21338,17.7747 L5.21338,17.7747 L5.21338,18.7747 L6.21338,18.7747 L6.34482519,18.7660245 C6.5615275,18.7372861 6.76420667,18.63805 6.92049,18.4818 L6.92049,18.4818 L13.4058,11.9965 L11.9916,10.5823 Z M19.0626,4.92546 C18.6721,4.53494 18.0389,4.53494 17.6484,4.92546 L17.6484,4.92546 L15.5341,7.03975 C15.1397,7.43416 14.5002,7.43415 14.1058,7.03975 C13.7192,6.65311 13.0923,6.65311 12.7057,7.03975 L12.7057,7.03975 L11.9916,7.75389 L16.2342,11.9965 L16.9483,11.2824 C17.335,10.8957 17.335,10.2689 16.9483,9.88224 C16.5539,9.48785 16.5539,8.84838 16.9483,8.45396 L16.9483,8.45396 L19.0626,6.33968 C19.4531,5.94915 19.4531,5.31599 19.0626,4.92546 Z" id="形状结合" fill="#09244B"></path>
            </g>
        </g>
    </g>
</svg>

<svg xmlns="http://www.w3.org/2000/svg" width="24" height="24"><g fill="none" fill-rule="evenodd"><path d="M24 0v24H0V0h24ZM12.593 23.258l-.011.002-.071.035-.02.004-.014-.004-.071-.035c-.01-.004-.019-.001-.024.005l-.004.01-.017.428.005.02.01.013.104.074.015.004.012-.004.104-.074.012-.016.004-.017-.017-.427c-.002-.01-.009-.017-.017-.018Zm.265-.113-.013.002-.185.093-.01.01-.003.011.018.43.005.012.008.007.201.093c.012.004.023 0 .029-.008l.004-.014-.034-.614c-.003-.012-.01-.02-.02-.022Zm-.715.002a.023.023 0 0 0-.027.006l-.006.014-.034.614c0 .012.007.02.017.024l.015-.002.201-.093.01-.008.004-.011.017-.43-.003-.012-.01-.01-.184-.092Z"/><path fill="#09244B" d="M20.477 3.511a3 3 0 0 1 0 4.243l-1.533 1.533a2.991 2.991 0 0 1-.581 3.41l-.715.714a2 2 0 0 1-2.828 0l-6.485 6.485a3 3 0 0 1-2.122.879h-1.8a1.2 1.2 0 0 1-1.2-1.2v-1.8a3 3 0 0 1 .88-2.122l6.484-6.485a2 2 0 0 1 0-2.828l.714-.714a2.991 2.991 0 0 1 3.41-.582l1.533-1.533a3 3 0 0 1 4.243 0Zm-8.485 7.071-6.486 6.486-.087.099a1 1 0 0 0-.206.608v1h1l.132-.009a1 1 0 0 0 .575-.284l6.486-6.485-1.414-1.415Zm7.07-5.657a1 1 0 0 0-1.414 0L15.534 7.04a1.01 1.01 0 0 1-1.428 0 .99.99 0 0 0-1.4 0l-.714.714 4.242 4.243.714-.715a.99.99 0 0 0 0-1.4 1.01 1.01 0 0 1 0-1.428l2.115-2.114a1 1 0 0 0 0-1.415Z"/></g></svg>
